docs/img/road/air.svg

<svg width="21" height="21" viewBox="0 0 21 21" fill="none" xmlns="http://www.w3.org/2000/svg">
<path d="M11.225 8.59419L5.71601 14.1042L3.84601 13.3272L3.67901 13.4962L6.05901 15.0832L7.64701 17.4632L7.81501 17.2952L7.03901 15.4252L12.548 9.91719L16.876 16.1692L17.086 15.9612L14.199 8.2652L18.599 3.86719C18.6859 3.78033 18.7548 3.6772 18.8018 3.5637C18.8488 3.4502 18.873 3.32855 18.873 3.20569C18.873 3.08284 18.8488 2.96119 18.8018 2.84769C18.7548 2.73419 18.6859 2.63106 18.599 2.54419C18.5121 2.45733 18.409 2.38842 18.2955 2.3414C18.182 2.29439 18.0604 2.27019 17.9375 2.27019C17.8147 2.27019 17.693 2.29439 17.5795 2.3414C17.466 2.38842 17.3629 2.45733 17.276 2.54419L12.876 6.94319L5.18201 4.05719L4.97201 4.26619L11.225 8.59419ZM16.615 19.0772L12.285 12.8242L9.24501 15.8642L10.022 17.7342L7.35601 20.3992L4.71101 16.4322L0.743011 13.7862L3.40901 11.1202L5.27801 11.8962L8.31801 8.85619L2.06501 4.52819L4.71101 1.88319L12.406 4.7682L15.953 1.22119C16.2124 0.95552 16.522 0.743972 16.8637 0.598809C17.2055 0.453646 17.5727 0.377757 17.944 0.375538C18.3153 0.37332 18.6833 0.444817 19.0268 0.585886C19.3702 0.726955 19.6823 0.93479 19.9449 1.19735C20.2074 1.4599 20.4153 1.77196 20.5563 2.11543C20.6974 2.4589 20.7689 2.82695 20.7667 3.19825C20.7645 3.56956 20.6886 3.93673 20.5434 4.27849C20.3982 4.62024 20.1867 4.92979 19.921 5.1892L16.374 8.73619L19.26 16.4322L16.614 19.0772H16.615Z" fill="black" fill-opacity="0.5"/>
</svg>

<svg width="21" height="21" fill="none" xmlns="http://www.w3.org/2000/svg"><path d="M11.225 8.594l-5.509 5.51-1.87-.777-.167.17 2.38 1.586 1.588 2.38.168-.168-.776-1.87 5.509-5.508 4.328 6.252.21-.208-2.887-7.696 4.4-4.398a.935.935 0 1 0-1.323-1.323l-4.4 4.4-7.694-2.887-.21.21 6.253 4.327zm5.39 10.483l-4.33-6.253-3.04 3.04.777 1.87L7.356 20.4l-2.645-3.967-3.968-2.646 2.666-2.666 1.869.776 3.04-3.04-6.253-4.328 2.646-2.645 7.695 2.885 3.547-3.547a2.807 2.807 0 1 1 3.968 3.968l-3.547 3.547 2.886 7.696-2.646 2.645h.001z" fill="#000" fill-opacity=".5"/></svg>
